svg/icon/xas.svg

<svg height="32" viewBox="0 0 32 32" width="32" xmlns="http://www.w3.org/2000/svg" xmlns:xlink="http://www.w3.org/1999/xlink"><defs><linearGradient id="a" x1="50%" x2="50%" y1="0%" y2="100%"><stop offset="0" stop-color="#fff" stop-opacity=".5"/><stop offset="1" stop-opacity=".5"/></linearGradient><circle id="b" cx="16" cy="15" r="15"/><filter id="c" height="111.7%" width="111.7%" x="-5.8%" y="-4.2%"><feOffset dy=".5" in="SourceAlpha" result="shadowOffsetOuter1"/><feGaussianBlur in="shadowOffsetOuter1" result="shadowBlurOuter1" stdDeviation=".5"/><feComposite in="shadowBlurOuter1" in2="SourceAlpha" operator="out" result="shadowBlurOuter1"/><feColorMatrix in="shadowBlurOuter1" values="0 0 0 0 0   0 0 0 0 0   0 0 0 0 0  0 0 0 0.199473505 0"/></filter><path id="d" d="m25.9916006 13.4711311-9.4683162 11.0095373-.425571.5193316-10.09099386-11.4181234.03199783-.0127249-.03871737-.0061697 3.92181332-6.55673521.00215985.0022365-.00215985-.00848329h12.25404668l-.0022398.00724936 3.8263798 6.46179944zm-13.1360668.4584833-2.1704124 3.674036 5.352436 6.112365 5.3629954-6.1619537-2.1214558-3.63509zm-2.7778911 2.9804113 1.7595604-2.9787146-4.36162344.0071722zm9.7231788-3.8460154 4.9546231-.0084062-3.1097085-5.20727505-4.882708.01056555zm4.7711956.8460154-4.2731494.007018 1.7126835 2.9346787zm-5.7910462-.8443959-2.691257-4.61120821-2.7291744 4.62015421zm-8.3986289-5.19316193-3.09978921 5.21236503 5.05965591-.0085604 3.0803506-5.21452443z"/><filter id="e" height="119.4%" width="117.5%" x="-8.8%" y="-6.9%"><feOffset dy=".5" in="SourceAlpha" result="shadowOffsetOuter1"/><feGaussianBlur in="shadowOffsetOuter1" result="shadowBlurOuter1" stdDeviation=".5"/><feColorMatrix in="shadowBlurOuter1" values="0 0 0 0 0   0 0 0 0 0   0 0 0 0 0  0 0 0 0.204257246 0"/></filter></defs><g fill="none" fill-rule="evenodd"><use fill="#000" filter="url(#c)" xlink:href="#b"/><use fill="#faa00d" xlink:href="#b"/><use fill="url(#a)" xlink:href="#b"/><circle cx="16" cy="15" r="14.5" stroke="#000" stroke-opacity=".097"/><g fill-rule="nonzero"><use fill="#000" filter="url(#e)" xlink:href="#d"/><use fill="#fff" fill-rule="evenodd" xlink:href="#d"/></g></g></svg>

<svg xmlns="http://www.w3.org/2000/svg" xmlns:xlink="http://www.w3.org/1999/xlink" width="32" height="32" viewBox="0 0 32 32">
  <defs>
    <linearGradient id="xas-c" x1="50%" x2="50%" y1="0%" y2="100%">
      <stop offset="0%" stop-color="#FFF" stop-opacity=".5"/>
      <stop offset="100%" stop-opacity=".5"/>
    </linearGradient>
    <circle id="xas-b" cx="16" cy="15" r="15"/>
    <filter id="xas-a" width="111.7%" height="111.7%" x="-5.8%" y="-4.2%" filterUnits="objectBoundingBox">
      <feOffset dy=".5" in="SourceAlpha" result="shadowOffsetOuter1"/>
      <feGaussianBlur in="shadowOffsetOuter1" result="shadowBlurOuter1" stdDeviation=".5"/>
      <feComposite in="shadowBlurOuter1" in2="SourceAlpha" operator="out" result="shadowBlurOuter1"/>
      <feColorMatrix in="shadowBlurOuter1" values="0 0 0 0 0   0 0 0 0 0   0 0 0 0 0  0 0 0 0.199473505 0"/>
    </filter>
    <path id="xas-e" d="M25.9916006,13.4711311 L16.5232844,24.4806684 L16.0977134,25 L6.00671954,13.5818766 L6.03871737,13.5691517 L6,13.562982 L9.92181332,7.00624679 L9.92397317,7.00848329 L9.92181332,7 L22.17586,7 L22.1736202,7.00724936 L26,13.4690488 L25.9916006,13.4711311 Z M12.8555338,13.9296144 L10.6851214,17.6036504 L16.0375574,23.7160154 L21.4005528,17.5540617 L19.279097,13.9189717 L12.8555338,13.9296144 Z M10.0776427,16.9100257 L11.8372031,13.9313111 L7.47557966,13.9384833 L10.0776427,16.9100257 Z M19.8008215,13.0640103 L24.7554446,13.0556041 L21.6457361,7.84832905 L16.7630281,7.8588946 L19.8008215,13.0640103 Z M24.5720171,13.9100257 L20.2988677,13.9170437 L22.0115512,16.8517224 L24.5720171,13.9100257 Z M18.7809709,13.0656298 L16.0897139,8.45442159 L13.3605395,13.0745758 L18.7809709,13.0656298 Z M10.382342,7.87246787 L7.28255279,13.0848329 L12.3422087,13.0762725 L15.4225593,7.86174807 L10.382342,7.87246787 Z"/>
    <filter id="xas-d" width="117.5%" height="119.4%" x="-8.8%" y="-6.9%" filterUnits="objectBoundingBox">
      <feOffset dy=".5" in="SourceAlpha" result="shadowOffsetOuter1"/>
      <feGaussianBlur in="shadowOffsetOuter1" result="shadowBlurOuter1" stdDeviation=".5"/>
      <feColorMatrix in="shadowBlurOuter1" values="0 0 0 0 0   0 0 0 0 0   0 0 0 0 0  0 0 0 0.204257246 0"/>
    </filter>
  </defs>
  <g fill="none" fill-rule="evenodd">
    <use fill="#000" filter="url(#xas-a)" xlink:href="#xas-b"/>
    <use fill="#FAA00D" xlink:href="#xas-b"/>
    <use fill="url(#xas-c)" style="mix-blend-mode:soft-light" xlink:href="#xas-b"/>
    <circle cx="16" cy="15" r="14.5" stroke="#000" stroke-opacity=".097"/>
    <g fill-rule="nonzero">
      <use fill="#000" filter="url(#xas-d)" xlink:href="#xas-e"/>
      <use fill="#FFF" fill-rule="evenodd" xlink:href="#xas-e"/>
    </g>
  </g>
</svg>
